src/images/networks/real.svg

<svg width="46" height="46" viewBox="0 0 46 46" fill="none" xmlns="http://www.w3.org/2000/svg">
<circle class='bg' cx="23" cy="23" r="23" fill="white"/>
<path class='fg' d="M16.9433 5.88881C16.4354 5.88847 15.9328 5.99305 15.4672 6.19599C15.0015 6.39894 14.5828 6.69588 14.2373 7.0682C13.3458 8.02871 12.2655 8.79475 11.0641 9.31832C9.86272 9.8419 8.56616 10.1117 7.25565 10.1109H5.05948C7.1181 7.2836 9.81704 4.98403 12.9353 3.40044C16.0536 1.81686 19.5026 0.994272 23 1.00003C26.4974 0.994272 29.9464 1.81686 33.0647 3.40044C36.183 4.98403 38.8819 7.2836 40.9405 10.1109H39.0437C37.7188 10.1116 36.4071 9.84803 35.1853 9.33559C33.9635 8.82316 32.8562 8.07216 31.9282 7.12654C31.5435 6.73439 31.0845 6.42293 30.5779 6.2104C30.0714 5.99787 29.5276 5.88854 28.9783 5.88881H16.9433ZM43.5375 14.7778H36.8083C36.2589 14.778 35.7149 14.6686 35.2082 14.4561C34.7016 14.2436 34.2423 13.9321 33.8575 13.54C32.9295 12.5943 31.8222 11.8433 30.6004 11.3308C29.3786 10.8184 28.0668 10.5548 26.7419 10.5557H19.1797C17.869 10.5549 16.5723 10.8248 15.3708 11.3484C14.1693 11.8719 13.0888 12.6379 12.197 13.5984C11.8515 13.9707 11.4328 14.2676 10.9672 14.4706C10.5015 14.6735 9.99899 14.7781 9.49104 14.7778H2.46252C1.71239 16.6274 1.22027 18.5714 1 20.5551H9.49104C10.8017 20.5561 12.0985 20.2863 13.3 19.7628C14.5015 19.2392 15.582 18.4731 16.4737 17.5124C16.8192 17.1401 17.2379 16.8432 17.7035 16.6402C18.1692 16.4373 18.6717 16.3327 19.1797 16.3331H26.7419C27.2914 16.3328 27.8353 16.4422 28.342 16.6547C28.8487 16.8672 29.3079 17.1787 29.6928 17.5708C30.6207 18.5165 31.728 19.2675 32.9498 19.78C34.1717 20.2924 35.4834 20.556 36.8083 20.5551H45C44.7797 18.5714 44.2876 16.6274 43.5375 14.7778ZM45 25.4449H36.8083C35.4834 25.444 34.1717 25.7076 32.9498 26.22C31.728 26.7325 30.6207 27.4835 29.6928 28.4292C29.3079 28.8213 28.8487 29.1328 28.342 29.3453C27.8353 29.5578 27.2914 29.6672 26.7419 29.6669H19.1797C18.6717 29.6673 18.1692 29.5627 17.7035 29.3598C17.2379 29.1568 16.8192 28.8599 16.4737 28.4876C15.582 27.5269 14.5015 26.7608 13.3 26.2372C12.0985 25.7137 10.8017 25.4439 9.49104 25.4449H1C1.22015 27.4286 1.71227 29.3727 2.46252 31.2223H9.49104C10.5193 31.2223 11.5007 31.6498 12.197 32.4016C13.0887 33.3623 14.1691 34.1284 15.3707 34.652C16.5722 35.1755 17.869 35.4453 19.1797 35.4443H26.7419C29.4221 35.4443 31.9884 34.3682 33.8575 32.46C34.2423 32.0679 34.7016 31.7564 35.2082 31.5439C35.7149 31.3314 36.2589 31.222 36.8083 31.2223H43.5375C44.2877 29.3727 44.7799 27.4286 45 25.4449ZM40.9405 35.8891H39.0437C37.7188 35.8884 36.4071 36.152 35.1853 36.6644C33.9635 37.1768 32.8562 37.9278 31.9282 38.8735C31.5435 39.2656 31.0845 39.5771 30.5779 39.7896C30.0714 40.0021 29.5276 40.1115 28.9783 40.1112H16.9433C16.4354 40.1115 15.9328 40.007 15.4672 39.804C15.0015 39.6011 14.5828 39.3041 14.2373 38.9318C13.3458 37.9713 12.2655 37.2053 11.0641 36.6817C9.86272 36.1581 8.56616 35.8883 7.25565 35.8891H5.05948C7.1181 38.7164 9.81704 41.016 12.9353 42.5996C16.0536 44.1831 19.5026 45.0057 23 45C26.4974 45.0057 29.9464 44.1831 33.0647 42.5996C36.183 41.016 38.8819 38.7164 40.9405 35.8891ZM22.999 27.2221C25.3454 27.2221 27.2479 25.332 27.2479 23C27.2479 20.668 25.3454 18.7779 22.999 18.7779C20.6527 18.7779 18.7511 20.668 18.7511 23C18.7511 25.332 20.6527 27.2221 22.999 27.2221Z" fill="#1C122C"/>
</svg>

<svg xmlns="http://www.w3.org/2000/svg" width="46" height="46" fill="none"><circle cx="23" cy="23" r="23" fill="#fff" class="bg"/><path fill="#1C122C" d="M16.943 5.889a3.69 3.69 0 0 0-2.706 1.18 9.52 9.52 0 0 1-6.981 3.042H5.059A22.15 22.15 0 0 1 23 1a22.15 22.15 0 0 1 17.94 9.11h-1.896a9.96 9.96 0 0 1-7.116-2.983 4.13 4.13 0 0 0-2.95-1.238zm26.595 8.889h-6.73a4.13 4.13 0 0 1-2.95-1.238 9.96 9.96 0 0 0-7.116-2.984H19.18a9.52 9.52 0 0 0-6.983 3.042 3.7 3.7 0 0 1-2.706 1.18H2.463A21.8 21.8 0 0 0 1 20.555h8.491a9.52 9.52 0 0 0 6.983-3.043 3.7 3.7 0 0 1 2.706-1.179h7.562a4.13 4.13 0 0 1 2.95 1.238 9.96 9.96 0 0 0 7.116 2.984H45a21.8 21.8 0 0 0-1.462-5.777M45 25.445h-8.192a9.96 9.96 0 0 0-7.115 2.984 4.13 4.13 0 0 1-2.951 1.238H19.18a3.69 3.69 0 0 1-2.706-1.18 9.52 9.52 0 0 0-6.983-3.042H1c.22 1.984.712 3.928 1.463 5.777H9.49c1.028 0 2.01.428 2.706 1.18a9.52 9.52 0 0 0 6.983 3.042h7.562a9.96 9.96 0 0 0 7.116-2.984 4.13 4.13 0 0 1 2.95-1.238h6.73A21.8 21.8 0 0 0 45 25.445m-4.06 10.444h-1.896a9.96 9.96 0 0 0-7.116 2.984 4.13 4.13 0 0 1-2.95 1.238H16.943a3.69 3.69 0 0 1-2.706-1.18 9.52 9.52 0 0 0-6.981-3.042H5.059A22.15 22.15 0 0 0 23 45a22.15 22.15 0 0 0 17.94-9.11M23 27.222c2.346 0 4.249-1.89 4.249-4.222s-1.903-4.222-4.249-4.222-4.248 1.89-4.248 4.222 1.902 4.222 4.248 4.222" class="fg"/></svg>
